X:250
%%etbk:tnset id:75,pos:3,rep:3x,ant:
%%etbk:wsite http://www.thesession.org/tunes/display/1868
%%etbk:pldat 2016-07-07T15:47,2014-09-25T17:50,2014-05-06T17:01,2014-02-26T18:30,2014-02-08T13:59,2014-02-05T16:20,2014-02-04T18:51,2013-10-05T15:24,2013-05-15T15:30
T: Nightingale, The
Z: Piano Box Version by Martin Fleischmann
H: Created 2013-02-19 /  Last Modified 2013-10-05
M: 6/8
L: 1/8
R: jig
K: Ador
|: "am"!1!E!3!A!1!A A2B | !3!cAd !3!c!1!A!2!G | "G"!1!E!2!E!1!E !2!G2G | !1!DEF !4!GFG |
"am"!1!E!3!A!2!G !1!A2B | !3!cAB c!4!d!2!e | "G"!4!g!3!g!4!g ege | !1!d!2!B!1!G "am"!1!A3:|
|: "am"!5!a!2!ea aef | "G"!4!g!1!dg gdg | "am"!5!a!2!ea aef | "G"!4!gfe def |
!4!g2e !3!fed | {g}!2!e!1!d!2!B !1!G!2!B!3!d | !5!g2g !4!e!5!ge | !3!d!2!B!1!G "am"!1!A3:|


